svg/Pictogram/pictograms-nps-accessibility-wheelchair-accessible.svg

<svg xmlns="http://www.w3.org/2000/svg" viewBox="0 0 256 256"><path d="m0 0c-.541 0-.98-.441-.98-.982v-7.524c0-.541.439-.982.98-.982h7.527c.541 0 .983.441.983.982v7.524c0 .541-.442.982-.983.982h-7.527" fill="#fff" transform="matrix(25.88211 0 0-25.88211 30.593 5.218)"/><path d="m0 0c-.652 0-1.182.529-1.182 1.184v7.523c0 .652.53 1.182 1.182 1.182h7.527c.653 0 1.182-.53 1.182-1.182v-7.523c0-.655-.529-1.184-1.182-1.184h-7.527" transform="matrix(25.88211 0 0-25.88211 30.593 256)"/><g fill="#fff"><path d="m0 0c.367 0 .662.299.662.662 0 .367-.295.662-.662.662-.365 0-.662-.295-.662-.662 0-.363.297-.662.662-.662" transform="matrix(25.88211 0 0-25.88211 107.58 62.29)"/><path d="m0 0c.105-.172.348-.242.531-.133.182.11.237.338.133.529l-1.129 1.95c-.07.117-.193.183-.32.187h-1.656l-.016.5h1.203c.164.001.299.135.299.303 0 .166-.131.295-.299.301h-1.238l-.043.568c-.024.348-.322.621-.674.602-.354-.02-.621-.325-.604-.676l.116-2.01c.029-.351.324-.603.674-.601h2.146l.877-1.52" transform="matrix(25.88211 0 0-25.88211 190.94 189.83)"/><path d="m0 0c-1.086 0-1.967.879-1.967 1.967 0 .596.27 1.127.69 1.488l-.036.615c-.703-.439-1.175-1.213-1.175-2.103 0-1.373 1.113-2.488 2.488-2.488 1.012 0 1.877.609 2.266 1.476l-.35.606c-.187-.889-.971-1.561-1.916-1.561" transform="matrix(25.88211 0 0-25.88211 118.6 209.39)"/></g></svg>

<?xml version="1.0" encoding="UTF-8" standalone="no"?>
<!-- Created with Inkscape (http://www.inkscape.org/) -->
<svg
   xmlns:dc="http://purl.org/dc/elements/1.1/"
   xmlns:cc="http://creativecommons.org/ns#"
   xmlns:rdf="http://www.w3.org/1999/02/22-rdf-syntax-ns#"
   xmlns:svg="http://www.w3.org/2000/svg"
   xmlns="http://www.w3.org/2000/svg"
   xmlns:sodipodi="http://sodipodi.sourceforge.net/DTD/sodipodi-0.dtd"
   xmlns:inkscape="http://www.inkscape.org/namespaces/inkscape"
   width="256"
   height="256"
   id="svg5294"
   sodipodi:version="0.32"
   inkscape:version="0.46"
   version="1.0"
   sodipodi:docname="pictograms-nps-accessibility-wheelchair-accessible2-.svg"
   inkscape:output_extension="org.inkscape.output.svg.inkscape">
  <defs
     id="defs5296">
    <inkscape:perspective
       sodipodi:type="inkscape:persp3d"
       inkscape:vp_x="0 : 526.18109 : 1"
       inkscape:vp_y="0 : 1000 : 0"
       inkscape:vp_z="744.09448 : 526.18109 : 1"
       inkscape:persp3d-origin="372.04724 : 350.78739 : 1"
       id="perspective5302" />
  </defs>
  <sodipodi:namedview
     id="base"
     pagecolor="#ffffff"
     bordercolor="#666666"
     borderopacity="1.0"
     gridtolerance="10000"
     guidetolerance="10"
     objecttolerance="10"
     inkscape:pageopacity="0.0"
     inkscape:pageshadow="2"
     inkscape:zoom="1.4"
     inkscape:cx="124.57192"
     inkscape:cy="96.239849"
     inkscape:document-units="px"
     inkscape:current-layer="layer1"
     showgrid="false"
     inkscape:window-width="747"
     inkscape:window-height="674"
     inkscape:window-x="0"
     inkscape:window-y="309" />
  <metadata
     id="metadata5299">
    <rdf:RDF>
      <cc:Work
         rdf:about="">
        <dc:format>image/svg+xml</dc:format>
        <dc:type
           rdf:resource="http://purl.org/dc/dcmitype/StillImage" />
      </cc:Work>
    </rdf:RDF>
  </metadata>
  <g
     inkscape:label="Layer 1"
     inkscape:groupmode="layer"
     id="layer1">
    <g
       id="g3206"
       transform="matrix(25.882115,0,0,-25.882115,30.59266,5.2178344)">
      <path
         d="M 0,0 C -0.541,0 -0.98,-0.441 -0.98,-0.982 L -0.98,-8.506 C -0.98,-9.047 -0.541,-9.488 0,-9.488 L 7.527,-9.488 C 8.068,-9.488 8.51,-9.047 8.51,-8.506 L 8.51,-0.982 C 8.51,-0.441 8.068,0 7.527,0 L 0,0 z"
         style="fill:#ffffff;fill-opacity:1;fill-rule:nonzero;stroke:none"
         id="path3208" />
    </g>
    <g
       id="g3210"
       transform="matrix(25.882115,0,0,-25.882115,30.59266,256)">
      <path
         d="M 0,0 C -0.652,0 -1.182,0.529 -1.182,1.184 L -1.182,8.707 C -1.182,9.359 -0.652,9.889 0,9.889 L 7.527,9.889 C 8.18,9.889 8.709,9.359 8.709,8.707 L 8.709,1.184 C 8.709,0.529 8.18,0 7.527,0 L 0,0 z"
         style="fill:#000000;fill-opacity:1;fill-rule:nonzero;stroke:none"
         id="path3212" />
    </g>
    <g
       id="g3214"
       transform="matrix(25.882115,0,0,-25.882115,107.58201,62.290797)">
      <path
         d="M 0,0 C 0.367,0 0.662,0.299 0.662,0.662 C 0.662,1.029 0.367,1.324 0,1.324 C -0.365,1.324 -0.662,1.029 -0.662,0.662 C -0.662,0.299 -0.365,0 0,0"
         style="fill:#ffffff;fill-opacity:1;fill-rule:nonzero;stroke:none"
         id="path3216" />
    </g>
    <g
       id="g3218"
       transform="matrix(25.882115,0,0,-25.882115,190.94002,189.82958)">
      <path
         d="M 0,0 C 0.105,-0.172 0.348,-0.242 0.531,-0.133 C 0.713,-0.023 0.768,0.205 0.664,0.396 L -0.465,2.346 C -0.535,2.463 -0.658,2.529 -0.785,2.533 L -2.441,2.533 L -2.457,3.033 L -1.254,3.033 C -1.09,3.043 -0.955,3.168 -0.955,3.336 C -0.955,3.502 -1.086,3.631 -1.254,3.637 L -2.492,3.637 L -2.535,4.205 C -2.559,4.553 -2.857,4.826 -3.209,4.807 C -3.563,4.787 -3.83,4.482 -3.813,4.131 L -3.697,2.121 C -3.668,1.77 -3.373,1.518 -3.023,1.52 L -0.877,1.52 L 0,0 z"
         style="fill:#ffffff;fill-opacity:1;fill-rule:nonzero;stroke:none"
         id="path3220" />
    </g>
    <g
       id="g3222"
       transform="matrix(25.882115,0,0,-25.882115,118.6022,209.39418)">
      <path
         d="M 0,0 C -1.086,0 -1.967,0.879 -1.967,1.967 C -1.967,2.563 -1.697,3.094 -1.277,3.455 L -1.313,4.07 C -2.016,3.631 -2.488,2.857 -2.488,1.967 C -2.488,0.594 -1.375,-0.521 0,-0.521 C 1.012,-0.521 1.877,0.088 2.266,0.955 L 1.916,1.561 C 1.729,0.672 0.945,0 0,0"
         style="fill:#ffffff;fill-opacity:1;fill-rule:nonzero;stroke:none"
         id="path3224" />
    </g>
  </g>
</svg>
